Cloud/dashboard/static/tracks/yas_marina.svg

<?xml version="1.0" encoding="UTF-8"?>
<!-- Uploaded to: SVG Find, www.svgfind.com, Generator: SVG Find Mixer Tools -->
<svg fill="#000000" width="800px" height="800px" version="1.1" viewBox="144 144 512 512" xmlns="http://www.w3.org/2000/svg">
 <path d="m609.71 194.28c-1.6914-5.9766-8.2617-9.6875-14.289-7.9805l-346.93 98.332c-6.5703 1.8594-12.801 4.6992-18.523 8.4414-2.6289 1.7227-4.3359 4.4961-4.6875 7.6172-0.35156 3.125 0.70312 6.2109 2.8867 8.4688l6.0742 6.2852c0.94141 0.97266 1.0234 2.5039 0.19141 3.5586-5.0391 6.3789-14.84 19.535-23.812 35.949-7.7188 14.117-12.289 29.523-13.594 45.789l-6.7383 84.34c-0.85938 10.734-0.42188 21.57 1.3047 32.215l13.605 83.859c0.98438 6.0664 6.1641 10.465 12.316 10.465 2.4883 0 4.9062-0.75 6.9883-2.168l5.5391-3.5938 4.0273 4.6562c1.9766 2.293 4.8516 3.6055 7.8789 3.6055 2.2773 0 4.4453-0.72656 6.2656-2.0977l30.062-22.645c2.1953-1.6523 3.5859-4.1719 3.8164-6.9062 0.23437-2.7344-0.71094-5.4492-2.5898-7.4414l-53.984-57.418c-1.1211-1.1953-1.9648-2.6445-2.4297-4.1836-1.8516-6.125-5.5781-22.68-0.17578-44.176 0.39844-1.5938 1.2227-3.1133 2.3789-4.3984l17.898-19.93c0.39062-0.43359 0.74609-0.24609 0.96484-0.019531l20.207 20.727c1.8203 1.8672 4.3594 2.9375 6.9648 2.9375h0.003907c2.0859 0 4.0781-0.65625 5.7578-1.8906l26.828-19.707c2.1992-1.6172 3.6211-4.0977 3.9102-6.8125 0.28906-2.7148-0.58594-5.4414-2.3984-7.4805l-56.074-63.129c-0.67188-0.75781-0.83594-1.8398-0.42188-2.7617l21.828-48.184c1.9258-4.2461 5.8945-5.7617 8.9688-5.7617 2.793 0 5.3672 1.1523 7.25 3.2461l104.59 116.13c3.0664 3.4062 7.4531 5.3594 12.035 5.3594 4.7266 0 9.207-2.0547 12.285-5.6406l35.801-41.664c6.6328-7.7188 8.9805-18.191 6.2773-28.012-6.5781-23.891-7.0234-35.98-5.3984-39.078 4.9492-9.4609 10.852-17.801 33.016-24.086 20.582-5.832 30.516-14.047 38.496-20.645 1.3438-1.1094 2.6445-2.1836 3.9492-3.207 7.4961-5.8711 32.223-28.836 42.508-38.434 2.9414-2.7461 4.0898-6.8555 2.9922-10.734l-2.375-8.3828 0.30859-0.55078 30.273-8.5781c6.1289-1.7422 9.7109-8.1523 7.9727-14.289zm-10.773 4.4336-30.27 8.5781c-2.75 0.77734-5.0312 2.582-6.4219 5.0781-1.3945 2.4961-1.7305 5.3828-0.94922 8.1289l2.25 8.832c-7.9453 7.418-34.453 32.082-41.832 37.859-1.375 1.0742-2.7422 2.207-4.1562 3.375-7.6172 6.2969-16.254 13.438-34.766 18.688-23.488 6.6562-32.449 16.105-39.297 29.191-1.332 2.543-5.3867 10.285 4.6016 46.551 1.7969 6.5273 0.24219 13.484-4.168 18.613l-35.805 41.668c-2.2578 2.6289-6.6133 2.6875-8.9336 0.10156l-58.25-64.68 4.1641-3.7461 29.395 32.699 7.8477 8.7305-3.0703-16.184-4.9922-0.44531-28.797-32.031-7.9805 7.1719-42.922-47.656c-3.8516-4.2812-9.1328-6.6367-14.863-6.6367-7.9961 0-15.008 4.5117-18.301 11.777l-21.828 48.184c-2.082 4.6016-1.2617 10.012 2.0898 13.789l55.691 62.699-26 19.102-19.891-20.402c-4.2305-4.3438-11.875-4.1797-15.926 0.32422l-17.902 19.934c-2.2617 2.5234-3.8867 5.5469-4.6914 8.7461-5.8125 23.117-2.3047 41.023 0.30469 49.645 0.92188 3.043 2.5703 5.8906 4.7695 8.2305l53.555 56.957-29.547 22.254c-0.023438 0.019531-0.050781 0.035156-0.10156 0.035156l-4.1562-4.7188c-1.9805-2.2891-4.8516-3.6016-7.8828-3.6016-2.0977 0-4.125 0.625-5.8594 1.8047l-5.3164 3.6211c-1.2148 0.83594-3.1328 0.30469-3.4219-1.4688l-13.602-83.859c-1.5977-9.8281-2-19.84-1.207-29.758l6.7383-84.34c1.1836-14.82 5.3477-28.844 12.371-41.691 8.6133-15.754 18.023-28.383 22.863-34.508 4.0039-5.0664 3.6289-12.387-0.86719-17.035l-6.0352-6.6758c4.8555-3.1719 10.141-5.582 15.707-7.1602l347.3-98.379c0.48438 0 1.0898 0.30469 1.2773 0.96484 0.19922 0.70703-0.21094 1.4453-0.91406 1.6445z"/>
</svg>

<?xml version="1.0" encoding="utf-8"?>
<svg fill="#000000" width="800px" height="800px" version="1.1" viewBox="144 144 512 512" xmlns="http://www.w3.org/2000/svg">
  <path d="M 609.71 194.28 C 608.019 188.303 601.448 184.592 595.421 186.299 L 248.491 284.632 C 241.921 286.491 235.69 289.331 229.968 293.073 C 227.339 294.796 225.632 297.569 225.281 300.69 C 224.929 303.815 225.984 306.901 228.167 309.159 L 234.241 315.444 C 235.183 316.417 235.265 317.948 234.433 319.003 C 229.394 325.382 219.593 338.538 210.621 354.952 C 202.902 369.069 198.332 384.475 197.027 400.741 L 190.289 485.081 C 189.429 495.815 189.867 506.651 191.593 517.296 L 205.198 601.155 C 206.183 607.221 211.362 611.62 217.514 611.62 C 220.003 611.62 222.42 610.87 224.503 609.452 L 230.042 605.858 L 234.069 610.514 C 236.046 612.807 238.921 614.12 241.948 614.12 C 244.225 614.12 246.393 613.393 248.213 612.022 L 278.275 589.377 C 280.471 587.725 281.861 585.205 282.092 582.471 C 282.326 579.736 281.381 577.021 279.502 575.029 L 225.518 517.611 C 224.397 516.416 223.553 514.967 223.088 513.428 C 221.237 507.303 217.51 490.748 222.913 469.252 C 223.311 467.658 224.135 466.138 225.291 464.853 L 243.189 444.923 C 243.58 444.49 243.936 444.677 244.154 444.904 L 264.361 465.631 C 266.182 467.498 268.721 468.568 271.326 468.568 L 271.33 468.568 C 273.416 468.568 275.408 467.912 277.088 466.678 L 303.916 446.971 C 306.115 445.354 307.537 442.873 307.826 440.158 C 308.115 437.443 307.24 434.717 305.428 432.678 L 249.354 369.549 C 248.682 368.791 248.518 367.709 248.932 366.787 L 270.76 318.603 C 272.686 314.357 276.654 312.841 279.729 312.841 C 282.522 312.841 285.096 313.994 286.979 316.087 L 391.569 432.217 C 394.635 435.624 399.022 437.577 403.604 437.577 C 408.33 437.577 412.811 435.522 415.889 431.936 L 451.69 390.272 C 458.322 382.553 460.67 372.081 457.967 362.26 C 451.389 338.369 450.943 326.28 452.568 323.182 C 457.518 313.721 463.42 305.381 485.584 299.096 C 506.166 293.264 516.1 285.049 524.08 278.451 C 525.424 277.342 526.725 276.268 528.03 275.244 C 535.526 269.373 560.253 246.408 570.538 236.81 C 573.479 234.064 574.627 229.955 573.53 226.076 L 571.155 217.693 L 571.463 217.143 L 601.736 208.565 C 607.865 206.822 611.447 200.412 609.709 194.276 L 609.71 194.28 Z M 598.937 198.714 L 568.667 207.292 C 565.917 208.069 563.636 209.874 562.245 212.37 C 560.851 214.866 560.515 217.753 561.296 220.499 L 563.546 229.331 C 555.601 236.749 529.093 261.413 521.714 267.19 C 520.339 268.264 518.972 269.397 517.558 270.565 C 509.94 276.862 501.304 284.003 482.792 289.253 C 459.304 295.909 450.343 305.358 443.495 318.444 C 442.163 320.987 438.108 328.729 448.096 364.995 C 449.893 371.522 448.338 378.479 443.928 383.608 L 408.123 425.276 C 405.865 427.905 401.51 427.963 399.19 425.377 L 294.584 309.236 C 290.733 304.955 285.452 302.6 279.721 302.6 C 271.725 302.6 264.713 307.111 261.42 314.377 L 239.592 362.561 C 237.51 367.162 238.331 372.573 241.682 376.35 L 297.373 439.049 L 271.373 458.151 L 251.482 437.749 C 247.252 433.405 239.607 433.569 235.556 438.073 L 217.654 458.007 C 215.393 460.53 213.768 463.554 212.963 466.753 C 207.15 489.87 210.658 507.776 213.268 516.398 C 214.189 519.441 215.838 522.289 218.037 524.628 L 271.592 581.585 L 242.045 603.839 C 242.022 603.859 241.994 603.875 241.943 603.875 L 237.787 599.156 C 235.807 596.867 232.936 595.554 229.904 595.554 C 227.807 595.554 225.779 596.179 224.045 597.359 L 218.729 600.98 C 217.514 601.816 215.596 601.285 215.307 599.511 L 201.705 515.652 C 200.107 505.824 199.705 495.812 200.498 485.894 L 207.236 401.554 C 208.42 386.734 212.584 372.71 219.607 359.863 C 228.22 344.109 237.63 331.48 242.47 325.355 C 246.474 320.289 246.099 312.968 241.603 308.32 L 235.568 301.644 C 240.423 298.472 245.709 296.062 251.275 294.484 L 598.575 196.105 C 599.059 196.105 599.664 196.41 599.852 197.07 C 600.051 197.777 599.641 198.515 598.938 198.715 L 598.937 198.714 Z"/>
</svg>
